X:1
T:James Gibb editions
T:I know that my Redeemer liveth - Tomkins
T:#
%%score [ 1 2 3 4 ]
L:1/8
Q:1/4=96
M:4/4
K:Ab
V:1 treble nm="Soprano" snm="S"
V:2 treble nm="Alto" snm="A"
V:3 treble-8 nm="Tenor" snm="T"
V:4 bass nm="Bass" snm="B"
V:1
"^I know that my Redeemer liveth""^Thomas Tomkins\n(1572-1656)" F4 F4- | F2 F2 _G2 A2 | %2
w: I know|* that my Re-|
 B3 B =A3 A | z2 =A4 B2 | c3 d e4 | d2 c3 (d B2) | =A2 c3 B (B2- | B2 =A2) B4- | B4 z4 | %9
w: dee- mer liv- eth,|and that|I shall rise|out of the *|earth at the last|* * day,||
 z2 F2 c3 d | e2 dc B2 B2 | B4 =G2 BB | c2 A2 G3 G | =A2 _AG F4 | z2 cc d2 B2 | B2 =A2 B4- | %16
w: and shall be|co- ver'd a- gain with|my skin, and shall|see God in my|flesh, in my flesh,|and shall see God|in my flesh:|
 B4 z4 | F6 G2 | =A2 B2 c2 F2- | F2 F2 A4- | A4 A2 c2- | c2 B2 =AA B2 | c2 d2 c2 B2- | %23
w: |yea, and|I my- self shall|* be- hold|* him, not|* with o- ther, but|with these same, these|
 B2 =A2 B2 G2- | G2 F2 =EE F2 |[Q:1/4=94] G2[Q:1/4=92] A2[Q:1/4=89] G2[Q:1/4=87] F2- | %26
w: * same eyes, not|* with o- ther, but|with these same, these|
[Q:1/4=85] F2[Q:1/4=83] =E2[Q:1/4=50] !fermata!F4 |] %27
w: * same eyes.|
V:2
 D4 D4- | D2 D2 EE F2- | F (E/ D/ E2) F2 F2 | z2 F4 G2 | AE A3 (G/ F/ G2) | F3 E F4- | %6
w: I know|* that my Re- dee\-|* mer * * liv- eth,|and that|I shall rise out * *|of the earth|
 F2 A2 _G2 (F2- | F E C2) =D4 | z2 B,2 F3 G | A2 GF E2 A2 | _G2 F3 (E G2) | F4 E2 GG | %12
w: * at the last|* * * day,|and shall be,|co- ver'd a- gain with|my skin, with *|my skin, and shall|
 A2 F2 F2 =E2 | F4 z2 FF | E2 C2 F3 F | _G2 FE =D2 B,2- | B,2 C2 D2 E2 | F8 | z2 D2 C4 | C3 C F4- | %20
w: see God in my|flesh, and shall|see God in my|flesh, in my flesh: yea,|* and I my-|self,|my- self|shall be- hold|
 F4 E4 | E6 D2 | CC (FG) (AG) (F E) | F4 =D2 E2 | B,2 B,4 A,2 | G,G, (CD) (ED) (CB,) | %26
w: * him,|not with|o- ther, but * with * these *|same, these same|eyes, not with|o- ther, but * with * these *|
 C4 !fermata!C4 |] %27
w: same eyes.|
V:3
 B4 A4 | F2 B3 (A/_G/) d2- | d (c B2) c2 c2 | z2 c4 e2 | e (c f2) e4 | A3 (B c2) d2 | %6
w: I know|that my Re\- * dee\-|* mer * liv- eth,|and that|I shall * rise|out of * the|
 c3 (B/A/ B) (c d2) | c4 B2 F2 | B3 c d2 cB | A2 (d2 c2) (BA) | B4 B2 e2- | ee =d2 e2 BB | %12
w: earth at * * the *|last day, and|shall be co- ver'd a-|gain with * my *|skin, a- gain|* with my skin, and shall|
 e2 c2 c3 c | c2 cc d2 B2 | B2 =A2 B3 d | c4 B4 | z4 F4- | F2 G2 =A2 B2 | c2 B2 =A4 | =A3 A d4- | %20
w: see God in my|flesh, and shall see God|in my flesh, in|my flesh:|yea,|* and I my-|self, my- self|shall be- hold|
 d4 c4 | c6 B2 | =AA B2 c2 d2 | c4 B4 | G6 F2 | =EE F2 G2 A2 | G4 !fermata!=A4 |] %27
w: * him,|not with|o- ther, but with these|same eyes,|not with|o- ther, but with these|same eyes.|
V:4
 B,,4 D,4- | D,2 B,,2 E,2 D,2 | _G,3 G, F,2 F,2 | z2 F,4 E,2 | A,2 F,2 C4 | F,3 (G, A,2) B,2 | %6
w: I know|* that my Re-|dee- mer liv- eth,|and that|I shall rise|out of * the|
 F,4 E,2 D,2 | F,4 B,,4- | B,,4 z2 B,,2 | F,3 G, A,2 G,F, | E,2 B,2 _G,3 A, | B,4 E,2 E,E, | %12
w: earth at the|last day,|* and|shall be co- ver'd a-|gain, a- gain with|my skin, and shall|
 C,2 F,2 C,2 C,2 | F,6 D,D, | C,4 B,,2 D,2 | (E,2 F,2) B,,4 | B,,6 C,2 | D,2 E,2 F,4- | F,8 | %19
w: see God in my|flesh, and shall|see God in|my * flesh:|yea, and|I my- self||
 F,3 F, D,4- | D,4 A,,2 A,2- | A,2 G,2 F,3 F, | F,4 F,3 F, | F,4 B,,2 E,2- | E,2 D,2 C,3 C, | %25
w: shall be- hold|* him, not|* with o- ther,|but with these|same eyes, not|* with o- ther,|
 C,4 C,3 C, | C,4 !fermata!F,4 |] %27
w: but with these|same eyes.|

